X: 159
T: dongshanshang diandeng xishanshang ming
%%abc-version 2.0
%%abcx-abcm2ps-target-version 5.9.1 (29 Sep 2008)
%%abc-creator hum2abc beta
%%abcx-conversion-date 2013/10/02 07:52:29
%%abc-edited-by Helmut Schaffrath
%%humdrum-veritas 4219637135
%%humdrum-veritas-data 299969767
%%continueall 1
%%barnumbers 0
L: 1/8
M: 2/4
K: F
A c d c/ d/ [I:setbarnb 1]| 
f d c d | 
G c d/ c/ A/ G/ | 
F4 | 
A c d c/ d/ | 
A d c G | 
F E/ D/C2 | 
F C/ D/ E D | 
C4 |]  



